!!!!SEGMENT: pl-wn--sd-xvi-qu-273--081_gomolka-mikolaj--radujcie-sie-bogu-nawysszemu.krn
!!!cenid: 15xx:286
!!!COM: Gomółka, Mikołaj
!!!COM-rismid: pe30013343
!!!CDT: ~1535->1591/04/30
!!!CNT: Polish
!!!GTL: Melodiae na psalterz polski
!!!OTL: LXXXI. Radujcie się Bogu nawysszemu,
!!!ONB: PSALM LXXXI. Exultate deo adiutori nostro:iubilate deo Iacob. Sumite Psalmum, et date tympanum:
!!!PDT: 1580
!!!AGN: Sacred
!!!SMS-siglum: PL-Wn
!!!SMS-shelfmark: SD XVI.Qu.273
!!!SMS-shelfwork: 081 G
!!!NIFC-rismid:
!!!ONB-nifc: Melodiae na psalterz polski
**kern	**text	**kern	**text	**kern	**text	**kern	**text
*part4	*part4	*part3	*part3	*part2	*part2	*part1	*part1
*staff4	*staff4	*staff3	*staff3	*staff2	*staff2	*staff1	*staff1
*clefF3	*	*clefC3	*	*clefC2	*	*clefG2	*
*k[b-B-]	*	*k[b-]	*	*k[b-B-]	*	*k[b-]	*
*d:	*	*d:	*	*d:	*	*d:	*
*M3/1	*	*M3/1	*	*M3/1	*	*M3/1	*
*met(C|3)	*	*met(C|3)	*	*met(C|3)	*	*met(C|3)	*
*I"BASSUS.	*	*I"TENOR.	*	*I"ALTUS.	*	*I"CANTUS.	*
=1-	=1	=1-	=1	=1-	=1	=1-	=1
!LO:TX:t=P: dwa bemole przy kluczu:problem	!	!	!	!LO:TX:t=P: dwa bemole przy kluczu:problem	!	!	!
2F\	RA-	2c/	RA-	2f\	RA-	2cc\	RA-
2B-\	-duy-	2d\	-duy-	2f\	-duy-	2b-/	-duy-
2c\	-ćie	2e\	-ćie	4e/	-ćie	2g/	ćie
.	.	.	.	4d/	.	.	.
1F\	sye	1f\	sye	1c/	sye	1a/	sye
.	.	.	.	.	.	.	.
2.B-\	bo-	2d\	bo-	2d/	bo-	2f/	bo-
=2-	=2	=2-	=2	=2-	=2	=2-	=2
.	.	1f\	-gu	1b-\	-gu	1ff\	-gu
4c\	.	.	.	.	.	.	.
2d\	-gu	.	.	.	.	.	.
2c\	na-	2g\	na-	2cc\	na-	4ee\	na-
.	.	.	.	.	.	4ff\	.
1G\	-wyż-	1g\	-wyż-	2.b-\	-wyż-	2.gg\	-wyż-
.	.	.	.	4a\	.	4ff\	.
2G\	-sze-	2g\	-(sze-	2b-\	-sze-	4ee\	-sze-
.	.	.	.	.	.	4dd\	.
=3-	=3	=3-	=3	=3-	=3	=3-	=3
*M2/1	*	*M2/1	*	*M2/1	*	*M2/1	*
*met(C|)	*	*met(C|)	*	*met(C|)	*	*met(C|)	*
1c\	-mu,	1g\	-mu,)	1cc\	-mu,	1ee\	-mu,
2r	.	2r	.	2r	.	2r	.
2B-\	Do-	2d\	Do-	2f\	Do-	2ff\	Do-
=4-	=4	=4-	=4	=4-	=4	=4-	=4
!!LO:PB:g=original
2A\	-bro-	2c/	-bro-	2.f\	-bro-	2ff\	bro-
2B-\	-dźie-	4d\	-dźie-	.	.	2ff\	-dźie-
.	.	4e\	.	4g\	.	.	.
4F\	-io-	4f\	-io-	4a\	-dźie-	1ff\	-io-
4G\	.	4e\	.	4b-\	.	.	.
4A\	-wi	4c/	-wi	2cc\	-io-	.	.
4B-\	.	4d\	ná-	.	.	.	.
=5-	=5	=5-	=5	=5-	=5	=5-	=5
1c\	ná-	4e\	.	4g\	.	1ee\	-wi
.	.	4f\	.	8a\L	-wi	.	.
.	.	.	.	8b-\J	.	.	.
.	.	2g\	-sze-	2cc\	ná-	.	.
2d\	-sze-	2f\	-mu:	2a\	.	1dd\	na-
2B-\	.	1f\	Biy-	4b-\	-sze-	.	.
.	.	.	.	4a\	.	.	.
*M1/1	*	*M1/1	*	*M1/1	*	*M1/1	*
=6-	=6	=6-	=6	=6-	=6	=6-	=6
1c\	-mu:	.	.	4g\	.	2.cc\	-sze-
.	.	.	.	4f\	-mu:	.	.
.	.	2e\	-ćie	2g\	.	.	.
.	.	.	.	.	.	4b-/	-mu:
=7-	=7	=7-	=7	=7-	=7	=7-	=7
*M3/1	*	*M3/1	*	*M3/1	*	*M3/1	*
*met(C|3)	*	*met(C|3)	*	*met(C|3)	*	*met(C|3)	*
1F\	Biy-	1f\	w bę-	2a\	Biy-	1.a/	Biy-
.	.	.	.	2f\	.	.	.
2F/	-ćie	2c/	.	2.cc\	-ćie	.	.
2c\	.	2c/	-bny,	.	.	2f/	-ćie
.	.	.	.	4b-\	.	.	.
2c\	w bę-	2F/	.	4a\	w bę-	2cc\	w bę-
.	.	.	.	4g\	.	.	.
2F/	.	2c/	w in-	2a\	-bny,	2cc\	-bny
=8-	=8	=8-	=8	=8-	=8	=8-	=8
1C/	-bny,	1c\	-stru-	1g\	w in-	1cc\	w in-
2F/	w in-	2c/	-men-	2f\	-stru-	2a/	-stru-
4G\	-stru-	4B-/	.	4e/	-men-	1b-/	-men-
4F\	.	4A/	.	4d/	.	.	.
!LO:N:vis=8	!	!	!	!	!	!	!
4G\	-men-	4B-/	.	4e/	.	.	.
4A\	.	4c\	.	4f\	.	.	.
4B-\	-ty	4d\	-ty	4g\	-ty	2b-/	-ty
4A\	.	4c\	.	4f\	.	.	.
*M3/2	*	*M3/2	*	*M3/2	*	*M3/2	*
=9-	=9	=9-	=9	=9-	=9	=9-	=9
!!LO:PB:g=original
4G\	gray-	4B-/	gray-	4e\	gray-	2b-/	gray-
4F\	.	4A/	.	4d/	.	.	.
1G\	.	4B-/	.	4e\	.	4g/	.
.	.	2c\	.	2f\	.	2a/	.
.	.	4B-/	.	4e\	.	4g/	.
=10-	=10	=10-	=10	=10-	=10	=10-	=10
*M2/1	*	*M2/1	*	*M2/1	*	*M2/1	*
*met(C|)	*	*met(C|)	*	*met(C|)	*	*met(C|)	*
1F\	-ćie,	1c\	-ćie,	1f\	-ćie,	1a/	-ćie,
2r	.	2r	.	2r	.	2r	.
2F/	A	2f\	A	2a\	A	2cc\	A
=11-	=11	=11-	=11	=11-	=11	=11-	=11
2c\	Psál-	2e\	.	2g\	.	2cc\	Psál-
1A\	-mów	2.a\	Psál-	2.f\	Psál-	2cc\	-mów
.	.	.	.	.	.	2cc\	nie
.	.	4g\	.	4e\	-mów	.	.
2.B-\	nie	1f\	-mów	2d/	.	1dd\	zá-
=12-	=12	=12-	=12	=12-	=12	=12-	=12
.	.	.	.	4b-\	nie	.	.
4c\	zá-	.	.	4a\	.	.	.
2d\	-nie-	4e\	nie	4g\	zá-	2b-/	-nie-
.	.	4d\	.	4f\	-nie-	.	.
1c\	-chay-	4e\	zá-	4g\	-chay-	2.cc\	-chay-
.	.	2f\	-nie-	2a\	.	.	.
.	.	.	.	.	.	.	.
.	.	4e\	-chay-	4g\	-ćie.	4b-/	-ćie.
=13-	=13	=13-	=13	=13-	=13	=13-	=13
000F\	-ćie.	000f\	-ćie.	000a\	.	000a/	.
==	==	==	==	==	==	==	==
*-	*-	*-	*-	*-	*-	*-	*-
!!!RDF**kern: l = terminal long
!!!system-decoration: s1,s2,s3,s4
!!!ENC: Marta Lawrence
!!!END: 2020-02-15
!!!URL-scan: https://polona.pl/item/melodiae-na-psalterz-polski,Nzk3MTM4ODQ/190 Scan on Polona
!!!IIIF: https://polona.pl/iiif/item/Nzk3MTM4ODQ/manifest.json
